icons/fill-new-drink-ice-tea.svg

<svg xmlns="http://www.w3.org/2000/svg" width="32px" height="32px" viewBox="0 0 32 32" version="1.1">
    <title>fill-new-drink-ice-tea</title>
    <g id="fill-new-drink-ice-tea" stroke-width="1" fill-rule="evenodd">
        <path d="M25.5,18 L24.1021588,30.1146241 C24.0439368,30.6192143 23.6166878,31 23.1087498,31 L8.89125018,31 C8.38331218,31 7.95606318,30.6192143 7.89784124,30.1146241 L6.5,18 L25.5,18 Z M15,26 C14.4477153,26 14,26.4477153 14,27 C14,27.5522847 14.4477153,28 15,28 C15.5522847,28 16,27.5522847 16,27 C16,26.4477153 15.5522847,26 15,26 Z M19,24 C18.4477153,24 18,24.4477153 18,25 C18,25.5522847 18.4477153,26 19,26 C19.5522847,26 20,25.5522847 20,25 C20,24.4477153 19.5522847,24 19,24 Z M13,22 C12.4477153,22 12,22.4477153 12,23 C12,23.5522847 12.4477153,24 13,24 C13.5522847,24 14,23.5522847 14,23 C14,22.4477153 13.5522847,22 13,22 Z M17,20 C16.4477153,20 16,20.4477153 16,21 C16,21.5522847 16.4477153,22 17,22 C17.5522847,22 18,21.5522847 18,21 C18,20.4477153 17.5522847,20 17,20 Z M6,10 L26,10 C27.1045695,10 28,10.8954305 28,12 L28,14 C28,15.1045695 27.1045695,16 26,16 L6,16 C4.8954305,16 4,15.1045695 4,14 L4,12 C4,10.8954305 4.8954305,10 6,10 Z M16,1 C20.4776856,1 24.2680083,3.9429507 25.5422352,8.00011922 L6.45776484,8.00011922 C7.73199167,3.9429507 11.5223144,1 16,1 Z" id="&#24418;&#29366;" />
    </g>
</svg>

<svg xmlns="http://www.w3.org/2000/svg" viewBox="0 0 32 32"><path fill="currentColor" d="m25.5 18-1.398 12.115a1 1 0 0 1-.993.885H8.89a1 1 0 0 1-.993-.885L6.5 18zM15 26a1 1 0 1 0 0 2 1 1 0 0 0 0-2m4-2a1 1 0 1 0 0 2 1 1 0 0 0 0-2m-6-2a1 1 0 1 0 0 2 1 1 0 0 0 0-2m4-2a1 1 0 1 0 0 2 1 1 0 0 0 0-2M6 10h20a2 2 0 0 1 2 2v2a2 2 0 0 1-2 2H6a2 2 0 0 1-2-2v-2a2 2 0 0 1 2-2m10-9c4.478 0 8.268 2.943 9.542 7H6.458C7.732 3.943 11.522 1 16 1"/></svg>
